imgs/skype.svg

<svg width="18" height="18" viewBox="0 0 18 18" fill="none" xmlns="http://www.w3.org/2000/svg">
<g clip-path="url(#clip0_1_409)">
<path d="M5.22 10.44C8.103 10.44 10.44 8.103 10.44 5.22C10.44 2.337 8.103 0 5.22 0C2.337 0 0 2.337 0 5.22C0 8.103 2.337 10.44 5.22 10.44Z" fill="#28A8EA"/>
<path d="M12.7799 17.9999C15.6629 17.9999 17.9999 15.6629 17.9999 12.7799C17.9999 9.89694 15.6629 7.55994 12.7799 7.55994C9.89689 7.55994 7.55989 9.89694 7.55989 12.7799C7.55989 15.6629 9.89689 17.9999 12.7799 17.9999Z" fill="#28A8EA"/>
<path d="M9.00012 17.64C13.772 17.64 17.6401 13.7719 17.6401 8.99999C17.6401 4.22811 13.772 0.359985 9.00012 0.359985C4.22825 0.359985 0.360123 4.22811 0.360123 8.99999C0.360123 13.7719 4.22825 17.64 9.00012 17.64Z" fill="#28A8EA"/>
<path fill-rule="evenodd" clip-rule="evenodd" d="M6.75936 8.83609C6.42152 8.61353 6.13969 8.31592 5.93586 7.96646C5.73894 7.59759 5.64173 7.18369 5.65386 6.76572C5.63886 6.23517 5.81989 5.7177 6.16236 5.31222C6.51811 4.90509 6.97537 4.59947 7.48761 4.42647C8.04493 4.22975 8.6321 4.13104 9.22311 4.13472C9.60973 4.13097 9.99598 4.16059 10.3777 4.22322C10.6507 4.26522 10.9189 4.33459 11.1784 4.42984C11.4164 4.51054 11.6313 4.64785 11.8046 4.82997C11.9325 4.97997 12.0015 5.17122 11.9985 5.36809C12.0031 5.47039 11.9875 5.5726 11.9525 5.66887C11.9176 5.76513 11.864 5.85356 11.7949 5.92909C11.7295 5.99872 11.6501 6.05372 11.5619 6.0905C11.4738 6.12727 11.3788 6.14498 11.2834 6.14246C11.1518 6.14146 11.0221 6.11231 10.9027 6.05697C10.6091 5.92572 10.3065 5.81509 9.99711 5.72584C9.7124 5.6508 9.4189 5.61435 9.12448 5.61747C8.74109 5.60331 8.36176 5.70019 8.03211 5.89647C7.89291 5.98104 7.77899 6.10147 7.70226 6.24515C7.62554 6.38883 7.58883 6.55049 7.59598 6.71322C7.59386 6.92671 7.67497 7.13263 7.82211 7.28734C7.99712 7.46888 8.20391 7.61682 8.43223 7.72384C8.68836 7.85059 9.06973 8.01897 9.57711 8.22896C9.63336 8.24659 9.68848 8.26871 9.74136 8.29459C10.2366 8.49033 10.7113 8.73425 11.1589 9.02284C11.5122 9.25341 11.8101 9.55936 12.0311 9.91872C12.2488 10.2961 12.3578 10.7263 12.3461 11.1618C12.3644 11.6955 12.2115 12.221 11.9096 12.6615C11.6024 13.0783 11.1774 13.3936 10.6894 13.5667C10.1014 13.7767 9.47998 13.878 8.85561 13.8656C7.99761 13.8956 7.14373 13.7343 6.35586 13.3931C6.15417 13.3034 5.97733 13.1659 5.84061 12.9926C5.72738 12.834 5.66869 12.6429 5.67336 12.4481C5.66765 12.3452 5.68434 12.2424 5.72228 12.1466C5.76023 12.0509 5.81851 11.9645 5.89311 11.8935C6.04986 11.7566 6.25311 11.685 6.46086 11.6936C6.69218 11.6968 6.91938 11.7553 7.12348 11.8642C7.37698 11.991 7.57723 12.0862 7.72348 12.1496C7.89111 12.2197 8.06473 12.2745 8.24211 12.3135C8.46073 12.3615 8.68423 12.3847 8.90811 12.3825C9.30385 12.4106 9.69762 12.3055 10.0267 12.084C10.1499 11.9875 10.2484 11.8631 10.314 11.7211C10.3796 11.5791 10.4104 11.4235 10.404 11.2672C10.4045 11.0452 10.32 10.8314 10.1677 10.6698C9.96672 10.4628 9.73153 10.2919 9.47248 10.1647C9.16611 10.0027 8.73523 9.80584 8.17986 9.57409C7.68289 9.37616 7.20701 9.12893 6.75936 8.83609Z" fill="white"/>
<path opacity="0.1" fill-rule="evenodd" clip-rule="evenodd" d="M6.85073 0.26252C6.6224 0.186086 6.38894 0.125935 6.15211 0.0825195C4.73064 0.538776 3.4385 1.32749 2.38293 2.38319C1.32736 3.43889 0.538814 4.73112 0.0827332 6.15264C0.126233 6.38964 0.186233 6.62289 0.262733 6.85127C0.326483 7.05752 0.407108 7.25889 0.503858 7.45239C0.81652 5.72444 1.64939 4.13317 2.89104 2.89145C4.13269 1.64973 5.72392 0.816775 7.45186 0.504019C7.25841 0.40735 7.05736 0.326705 6.85073 0.262895V0.26252Z" fill="black"/>
<path opacity="0.1" fill-rule="evenodd" clip-rule="evenodd" d="M6.85109 0.262573C5.25651 0.65573 3.79978 1.4774 2.63848 2.63871C1.47717 3.80001 0.655501 5.25674 0.262344 6.85132C0.326094 7.05757 0.406719 7.25895 0.503469 7.45245C0.816155 5.72444 1.64908 4.13313 2.8908 2.89141C4.13253 1.64968 5.72384 0.816759 7.45184 0.504073C7.25852 0.40742 7.0576 0.326775 6.85109 0.262948V0.262573Z" fill="black"/>
<path opacity="0.1" fill-rule="evenodd" clip-rule="evenodd" d="M17.7376 11.1491C17.6737 10.9425 17.5929 10.7414 17.4961 10.548C17.1834 12.2759 16.3505 13.8671 15.1089 15.1088C13.8672 16.3504 12.276 17.1833 10.5481 17.496C10.7416 17.5927 10.9426 17.6733 11.1492 17.7371C11.3776 17.8136 11.6108 17.8736 11.8475 17.9171C13.269 17.461 14.5612 16.6725 15.6169 15.6169C16.6727 14.5614 17.4614 13.2692 17.9176 11.8477C17.8742 11.6109 17.814 11.3774 17.7376 11.1491Z" fill="black"/>
<path opacity="0.1" fill-rule="evenodd" clip-rule="evenodd" d="M17.4961 10.548C17.1834 12.2759 16.3505 13.8671 15.1089 15.1088C13.8672 16.3504 12.276 17.1833 10.5481 17.496C10.7416 17.5927 10.9426 17.6733 11.1492 17.7371C12.7436 17.3439 14.2001 16.5223 15.3613 15.3611C16.5226 14.2 17.3443 12.7435 17.7376 11.1491C17.6738 10.9425 17.5931 10.7414 17.4965 10.548H17.4961Z" fill="black"/>
</g>
<defs>
<clipPath id="clip0_1_409">
<rect width="18" height="18" fill="white"/>
</clipPath>
</defs>
</svg>

<svg xmlns="http://www.w3.org/2000/svg" width="18" height="18" fill="none" xmlns:v="https://vecta.io/nano"><g clip-path="url(#A)"><g fill="#28a8ea"><path d="M5.22 10.44A5.22 5.22 0 1 0 5.22 0a5.22 5.22 0 1 0 0 10.44zM12.78 18a5.22 5.22 0 0 0 0-10.44 5.22 5.22 0 0 0 0 10.44z"/><path d="M9 17.64A8.64 8.64 0 1 0 9 .36a8.64 8.64 0 1 0 0 17.28z"/></g><g fill-rule="evenodd"><path d="M6.759 8.836c-.338-.223-.62-.52-.824-.87a2.4 2.4 0 0 1-.282-1.201 2.16 2.16 0 0 1 .508-1.453 3.06 3.06 0 0 1 1.325-.886 5.12 5.12 0 0 1 1.736-.292 6.73 6.73 0 0 1 1.155.089 4.16 4.16 0 0 1 .801.207c.238.081.453.218.626.4a.81.81 0 0 1 .194.538.78.78 0 0 1-.204.561c-.065.07-.145.125-.233.161s-.183.054-.278.052a.92.92 0 0 1-.381-.085c-.294-.131-.596-.242-.906-.331-.285-.075-.578-.111-.873-.108a1.99 1.99 0 0 0-1.092.279.91.91 0 0 0-.436.817.82.82 0 0 0 .226.574c.175.182.382.329.61.436l1.145.505a1.17 1.17 0 0 1 .164.066 8.13 8.13 0 0 1 1.418.728c.353.231.651.537.872.896a2.36 2.36 0 0 1 .315 1.243 2.5 2.5 0 0 1-.437 1.5c-.307.417-.732.732-1.22.905a5.15 5.15 0 0 1-1.834.299 5.78 5.78 0 0 1-2.5-.473 1.36 1.36 0 0 1-.515-.401.9.9 0 0 1-.167-.544.71.71 0 0 1 .22-.555.81.81 0 0 1 .568-.2 1.45 1.45 0 0 1 .663.171l.6.285a3.03 3.03 0 0 0 .519.164 2.97 2.97 0 0 0 .666.069 1.78 1.78 0 0 0 1.119-.299c.123-.096.222-.221.287-.363s.096-.298.09-.454a.87.87 0 0 0-.236-.597c-.201-.207-.436-.378-.695-.505-.306-.162-.737-.359-1.293-.591-.497-.198-.973-.445-1.42-.738z" fill="#fff"/><g fill="#000"><path opacity=".1" d="M6.851.263c-.228-.076-.462-.137-.699-.18-1.421.456-2.714 1.245-3.769 2.301S.539 4.731.083 6.153c.043.237.103.47.18.699a3.96 3.96 0 0 0 .241.601A8.62 8.62 0 0 1 7.452.504C7.258.407 7.057.327 6.851.263h0z"/><path opacity=".1" d="M6.851.263C5.257.656 3.8 1.477 2.638 2.639A9.01 9.01 0 0 0 .262 6.851a3.96 3.96 0 0 0 .241.601A8.62 8.62 0 0 1 7.452.504C7.259.407 7.058.327 6.851.263h0zm10.887 10.886a3.91 3.91 0 0 0-.242-.601 8.62 8.62 0 0 1-6.948 6.948 3.99 3.99 0 0 0 .601.241 5.1 5.1 0 0 0 .698.18 9.38 9.38 0 0 0 3.769-2.3 9.39 9.39 0 0 0 2.301-3.769 5.12 5.12 0 0 0-.18-.699z"/><path opacity=".1" d="M17.496 10.548a8.62 8.62 0 0 1-6.948 6.948c.194.097.395.177.601.241 1.594-.393 3.051-1.215 4.212-2.376s1.983-2.618 2.376-4.212a3.96 3.96 0 0 0-.241-.601h0z"/></g></g></g><defs><clipPath id="A"><path fill="#fff" d="M0 0h18v18H0z"/></clipPath></defs></svg>
